X:655
T:Timour The Tartar
C:Joe Buchanan's Scottish Tome - Page 200.1
I:200 1
Z:Carl Allison
R:Reel
L:1/8
M:4/4
K:A
E2 | "A"A2 ((3cBA) (e>A) ((3cBA) | "A"eAaA gAfA | "A"A2 ((3cBA) (e>A) ((3cBA) | "E7"BEdE cEBE |
"A"A2 ((3cBA) (e>A) ((3cBA) | "A"eAaA gAfA | "A"efec eaec | "E7"BABc "A"A2 :|
A2 | "E7"E2 ((3GFE) B>E ((3GFE) | "E7"BEdE cEBE | "A"A2 ((3cBA) e>A ((3cBA) | "A"eAaA gAfA |
"A"edec "D"agaf | "A"e^dec "D"agaf | "A"ecag fedc | "E7"BA[GB][Fc] E"(A)"[FA]GE :|
